src/components/character/sources/pants/Business_Bean_m_pants.svg

<?xml version="1.0" encoding="UTF-8" standalone="no"?>
<svg
   xmlns:dc="http://purl.org/dc/elements/1.1/"
   xmlns:cc="http://creativecommons.org/ns#"
   xmlns:rdf="http://www.w3.org/1999/02/22-rdf-syntax-ns#"
   xmlns:svg="http://www.w3.org/2000/svg"
   xmlns="http://www.w3.org/2000/svg"
   xmlns:sodipodi="http://sodipodi.sourceforge.net/DTD/sodipodi-0.dtd"
   xmlns:inkscape="http://www.inkscape.org/namespaces/inkscape"
   inkscape:export-ydpi="300"
   inkscape:export-xdpi="300"
   inkscape:export-filename="C:\Users\johan\Bohne.png"
   sodipodi:docname="Business_Bean_m_pants.svg"
   inkscape:version="1.0.1 (3bc2e813f5, 2020-09-07)"
   id="svg8"
   version="1.1"
   viewBox="0 0 77.706579 108.77032"
   height="411.1004"
   width="293.69418">
  <defs
     id="defs2">
    <mask
       maskUnits="userSpaceOnUse"
       id="mask1240">
      <g
         id="g1256">
        <path
           id="path1242"
           style="fill:#343945;stroke:#23262f;stroke-width:3.77953;stroke-miterlimit:4;stroke-dasharray:none"
           d="m 62.552734,169.70508 -40.617897,75.62748 22.613281,13.05469 12.584694,-22.09819 v 46.02344 h 89.589848 89.58984 v -46.02344 l 11.63384,25.71889 22.61132,-13.05469 -38.90188,-79.83949 -84.93267,32.60587 z"
           sodipodi:nodetypes="ccccccccccccc"
           transform="matrix(0.26458333,0,0,0.26458333,38.136244,44.878254)" />
        <g
           id="g1254">
          <path
             id="path1244"
             style="fill:#7f7d8c;fill-opacity:1;stroke:none;stroke-width:1;stroke-miterlimit:4;stroke-dasharray:none"
             d="m 77.991188,102.23173 a 1.0173565,1.0173565 0 0 1 -1.017357,1.01735 1.0173565,1.0173565 0 0 1 -1.017356,-1.01735 1.0173565,1.0173565 0 0 1 1.017356,-1.01736 1.0173565,1.0173565 0 0 1 1.017357,1.01736 z" />
          <path
             id="path1246"
             style="fill:#7f7d8c;fill-opacity:1;stroke:none;stroke-width:1;stroke-miterlimit:4;stroke-dasharray:none"
             d="m 77.991188,105.40671 a 1.0173565,1.0173565 0 0 1 -1.017357,1.01735 1.0173565,1.0173565 0 0 1 -1.017356,-1.01735 1.0173565,1.0173565 0 0 1 1.017356,-1.01736 1.0173565,1.0173565 0 0 1 1.017357,1.01736 z" />
          <path
             id="path1248"
             style="fill:#7f7d8c;fill-opacity:1;stroke:none;stroke-width:1;stroke-miterlimit:4;stroke-dasharray:none"
             d="m 77.991188,108.58169 a 1.0173565,1.0173565 0 0 1 -1.017357,1.01735 1.0173565,1.0173565 0 0 1 -1.017356,-1.01735 1.0173565,1.0173565 0 0 1 1.017356,-1.01736 1.0173565,1.0173565 0 0 1 1.017357,1.01736 z" />
          <path
             id="path1250"
             style="fill:#7f7d8c;fill-opacity:1;stroke:none;stroke-width:1;stroke-miterlimit:4;stroke-dasharray:none"
             d="m 77.991188,111.75669 a 1.0173565,1.0173565 0 0 1 -1.017357,1.01736 1.0173565,1.0173565 0 0 1 -1.017356,-1.01736 1.0173565,1.0173565 0 0 1 1.017356,-1.01736 1.0173565,1.0173565 0 0 1 1.017357,1.01736 z" />
          <path
             id="path1252"
             style="fill:#7f7d8c;fill-opacity:1;stroke:none;stroke-width:1;stroke-miterlimit:4;stroke-dasharray:none"
             d="m 77.991188,114.93169 a 1.0173565,1.0173565 0 0 1 -1.017357,1.01735 1.0173565,1.0173565 0 0 1 -1.017356,-1.01735 1.0173565,1.0173565 0 0 1 1.017356,-1.01736 1.0173565,1.0173565 0 0 1 1.017357,1.01736 z" />
        </g>
      </g>
    </mask>
    <mask
       maskUnits="userSpaceOnUse"
       id="mask1640">
      <path
         id="path1642"
         style="fill:#343945;fill-opacity:1;stroke:#000000;stroke-width:1;stroke-miterlimit:4;stroke-dasharray:none;stroke-opacity:1"
         d="m 55.233908,114.72825 c 0.554694,5.38954 2.901923,10.49873 9.575643,14.76293 v 17.29506 h 9.569958 v -11.80909 h 2.577105 2.577619 v 11.80909 h 9.569961 v -17.29506 c 6.673717,-4.2642 9.020431,-9.37339 9.575125,-14.76293 H 76.956614 Z" />
    </mask>
  </defs>
  <sodipodi:namedview
     inkscape:snap-object-midpoints="true"
     units="px"
     fit-margin-bottom="20"
     fit-margin-right="20"
     fit-margin-left="20"
     fit-margin-top="20"
     lock-margins="false"
     inkscape:window-maximized="1"
     inkscape:window-y="-11"
     inkscape:window-x="-11"
     inkscape:window-height="1346"
     inkscape:window-width="2160"
     inkscape:snap-nodes="true"
     inkscape:object-paths="true"
     inkscape:snap-smooth-nodes="true"
     showgrid="false"
     inkscape:document-rotation="0"
     inkscape:current-layer="layer3"
     inkscape:document-units="mm"
     inkscape:cy="319.27067"
     inkscape:cx="92.289278"
     inkscape:zoom="4.2155998"
     inkscape:pageshadow="2"
     inkscape:pageopacity="0.0"
     borderopacity="1.0"
     bordercolor="#666666"
     pagecolor="#ffffff"
     id="base"
     showguides="true"
     inkscape:guide-bbox="true">
    <sodipodi:guide
       position="7.5406243,38.920321"
       orientation="0,-1"
       id="guide899" />
    <sodipodi:guide
       id="guide881"
       orientation="1,0"
       position="38.820489,102.42969" />
    <sodipodi:guide
       position="44.31897,63.846306"
       orientation="0,-1"
       id="guide883" />
  </sodipodi:namedview>
  <metadata
     id="metadata5">
    <rdf:RDF>
      <cc:Work
         rdf:about="">
        <dc:format>image/svg+xml</dc:format>
        <dc:type
           rdf:resource="http://purl.org/dc/dcmitype/StillImage" />
        <dc:title></dc:title>
      </cc:Work>
    </rdf:RDF>
  </metadata>
  <g
     transform="translate(-38.136244,-44.878254)"
     style="display:inline"
     id="layer1"
     inkscape:groupmode="layer"
     inkscape:label="Body" />
  <g
     inkscape:label="Gesicht"
     id="layer4"
     inkscape:groupmode="layer" />
  <g
     transform="translate(-38.136244,-44.878254)"
     inkscape:label="Hose"
     id="layer3"
     inkscape:groupmode="layer">
    <g
       id="g1659">
      <path
         id="path1335"
         style="fill:#343945;fill-opacity:1;stroke:#000000;stroke-width:3.77953;stroke-miterlimit:4;stroke-dasharray:none;stroke-opacity:1"
         d="M 64.621094 264 C 66.717575 284.36991 75.588991 303.68021 100.8125 319.79688 L 100.8125 385.16406 L 136.98242 385.16406 L 136.98242 340.53125 L 146.72266 340.53125 L 156.46484 340.53125 L 156.46484 385.16406 L 192.63477 385.16406 L 192.63477 319.79688 C 217.85827 303.68021 226.72774 284.36991 228.82422 264 L 146.72266 264 L 64.621094 264 z "
         transform="matrix(0.26458333,0,0,0.26458333,38.136244,44.878254)" />
      <path
         id="path1478"
         style="fill:#343945;fill-opacity:1;stroke:#000000;stroke-width:3.77953;stroke-miterlimit:4;stroke-dasharray:none;stroke-opacity:1"
         d="M 64.621094 264 C 66.717575 284.36991 75.588991 303.68021 100.8125 319.79688 L 100.8125 385.16406 L 136.98242 385.16406 L 136.98242 340.53125 L 146.72266 340.53125 L 156.46484 340.53125 L 156.46484 385.16406 L 192.63477 385.16406 L 192.63477 319.79688 C 217.85827 303.68021 226.72774 284.36991 228.82422 264 L 146.72266 264 L 64.621094 264 z "
         transform="matrix(0.26458333,0,0,0.26458333,38.136244,44.878254)" />
      <g
         id="g1575"
         mask="url(#mask1640)"
         style="stroke:#565f78;stroke-opacity:1">
        <path
           style="display:inline;fill:#343945;fill-opacity:1;stroke:#565f78;stroke-width:0.5px;stroke-miterlimit:4;stroke-dasharray:none;stroke-opacity:1"
           d="m 96.9707,115.178 v 33.196"
           id="path1551"
           sodipodi:nodetypes="cc" />
        <path
           style="display:inline;fill:#343945;fill-opacity:1;stroke:#565f78;stroke-width:0.5px;stroke-miterlimit:4;stroke-dasharray:none;stroke-opacity:1"
           d="M 93.3324,115.199 V 148.38"
           id="path1553"
           sodipodi:nodetypes="cc" />
        <path
           style="display:inline;fill:#343945;fill-opacity:1;stroke:#565f78;stroke-width:0.5px;stroke-miterlimit:4;stroke-dasharray:none;stroke-opacity:1"
           d="m 89.6942,115.221 v 33.165"
           id="path1555"
           sodipodi:nodetypes="cc" />
        <path
           style="display:inline;fill:#343945;fill-opacity:1;stroke:#565f78;stroke-width:0.5px;stroke-miterlimit:4;stroke-dasharray:none;stroke-opacity:1"
           d="m 86.056,115.243 v 33.148"
           id="path1557"
           sodipodi:nodetypes="cc" />
        <path
           style="display:inline;fill:#343945;fill-opacity:1;stroke:#565f78;stroke-width:0.5px;stroke-miterlimit:4;stroke-dasharray:none;stroke-opacity:1"
           d="m 82.4177,115.265 v 33.132"
           id="path1559"
           sodipodi:nodetypes="cc" />
        <path
           style="display:inline;fill:#343945;fill-opacity:1;stroke:#565f78;stroke-width:0.5px;stroke-miterlimit:4;stroke-dasharray:none;stroke-opacity:1"
           d="m 78.7795,115.287 v 33.116"
           id="path1561"
           sodipodi:nodetypes="cc" />
        <path
           style="display:inline;fill:#343945;fill-opacity:1;stroke:#565f78;stroke-width:0.5px;stroke-miterlimit:4;stroke-dasharray:none;stroke-opacity:1"
           d="m 75.1412,115.308 v 33.101"
           id="path1563"
           sodipodi:nodetypes="cc" />
        <path
           style="display:inline;fill:#343945;fill-opacity:1;stroke:#565f78;stroke-width:0.5px;stroke-miterlimit:4;stroke-dasharray:none;stroke-opacity:1"
           d="m 71.503,115.33 v 33.084"
           id="path1565"
           sodipodi:nodetypes="cc" />
        <path
           style="display:inline;fill:#343945;fill-opacity:1;stroke:#565f78;stroke-width:0.5px;stroke-miterlimit:4;stroke-dasharray:none;stroke-opacity:1"
           d="M 67.8648,115.352 V 148.42"
           id="path1567"
           sodipodi:nodetypes="cc" />
        <path
           style="display:inline;fill:#343945;fill-opacity:1;stroke:#565f78;stroke-width:0.5px;stroke-miterlimit:4;stroke-dasharray:none;stroke-opacity:1"
           d="m 64.2265,115.374 v 33.052"
           id="path1569"
           sodipodi:nodetypes="cc" />
        <path
           style="display:inline;fill:#343945;fill-opacity:1;stroke:#565f78;stroke-width:0.5px;stroke-miterlimit:4;stroke-dasharray:none;stroke-opacity:1"
           d="m 60.5883,115.396 v 33.035"
           id="path1571"
           sodipodi:nodetypes="cc" />
        <path
           style="display:inline;fill:#343945;fill-opacity:1;stroke:#565f78;stroke-width:0.5px;stroke-miterlimit:4;stroke-dasharray:none;stroke-opacity:1"
           d="m 56.95,115.417 v 33.02"
           id="path1573"
           sodipodi:nodetypes="cc" />
      </g>
    </g>
  </g>
  <g
     transform="translate(-38.136244,-44.878254)"
     style="display:inline"
     inkscape:label="Shirt"
     id="layer2"
     inkscape:groupmode="layer" />
</svg>

<svg width="293.69" height="411.1" version="1.1" viewBox="0 0 77.707 108.77" xmlns="http://www.w3.org/2000/svg">
 <defs>
  <mask id="mask1640" maskUnits="userSpaceOnUse">
   <path d="m55.234 114.73c0.55469 5.3895 2.9019 10.499 9.5756 14.763v17.295h9.57v-11.809h5.1547v11.809h9.57v-17.295c6.6737-4.2642 9.0204-9.3734 9.5751-14.763h-21.723z" fill="#343945" stroke="#000"/>
  </mask>
 </defs>
 <g transform="translate(-38.136 -44.878)">
  <g fill="#343945">
   <path transform="matrix(.26458 0 0 .26458 38.136 44.878)" d="m64.621 264c2.0965 20.37 10.968 39.68 36.191 55.797v65.367h36.17v-44.633h9.7402 9.7422v44.633h36.17v-65.367c25.224-16.117 34.093-35.427 36.189-55.797h-82.102-82.102z" stroke="#000" stroke-width="3.7795"/>
   <path transform="matrix(.26458 0 0 .26458 38.136 44.878)" d="m64.621 264c2.0965 20.37 10.968 39.68 36.191 55.797v65.367h36.17v-44.633h9.7402 9.7422v44.633h36.17v-65.367c25.224-16.117 34.093-35.427 36.189-55.797h-82.102-82.102z" stroke="#000" stroke-width="3.7795"/>
   <g mask="url(#mask1640)" stroke="#565f78" stroke-width=".5px">
    <path d="m96.971 115.18v33.196"/>
    <path d="m93.332 115.2v33.181"/>
    <path d="m89.694 115.22v33.165"/>
    <path d="m86.056 115.24v33.148"/>
    <path d="m82.418 115.26v33.132"/>
    <path d="m78.78 115.29v33.116"/>
    <path d="m75.141 115.31v33.101"/>
    <path d="m71.503 115.33v33.084"/>
    <path d="m67.865 115.35v33.068"/>
    <path d="m64.226 115.37v33.052"/>
    <path d="m60.588 115.4v33.035"/>
    <path d="m56.95 115.42v33.02"/>
   </g>
  </g>
 </g>
</svg>
